Sources/FrostedUI/Resources/Icons.xcassets/lightbulb12.imageset/lightbulb-12.svg

<svg width="12" height="12" viewBox="0 0 12 12" fill="none" xmlns="http://www.w3.org/2000/svg" data-fui-icon="true">
  <path
    d="M5.99963 0.25C8.35621 0.25 10.277 2.14743 10.277 4.5C10.277 5.72524 9.75434 6.82965 8.92249 7.60352C8.78755 7.72906 8.74976 7.84395 8.74963 7.91016V9C8.74963 10.5188 7.51842 11.75 5.99963 11.75C4.481 11.7498 3.24963 10.5187 3.24963 9V7.91016C3.24951 7.84398 3.21256 7.729 3.07776 7.60352C2.2459 6.82965 1.72327 5.72524 1.72327 4.5C1.72327 2.14754 3.64321 0.25018 5.99963 0.25ZM5.99963 1.75C4.46087 1.75018 3.22327 2.98669 3.22327 4.5C3.22327 5.28956 3.55828 6.00158 4.09924 6.50488C4.44724 6.82862 4.74952 7.31644 4.74963 7.91016V9C4.74963 9.40845 4.94656 9.76994 5.24963 9.99805V6.72656L4.37561 5.41602C4.22237 5.18602 4.20825 4.89022 4.3385 4.64648C4.46896 4.40272 4.72318 4.25013 4.99963 4.25H6.99963C7.27617 4.25 7.53023 4.40271 7.66077 4.64648C7.79114 4.89031 7.77703 5.18595 7.62366 5.41602L6.74963 6.72656V9.99805C7.05269 9.76995 7.24963 9.40851 7.24963 9V7.91016C7.24974 7.31644 7.553 6.82862 7.901 6.50488C8.44187 6.00159 8.77698 5.28948 8.77698 4.5C8.77698 2.98658 7.53855 1.75 5.99963 1.75Z"
    fill="currentColor"
  />
</svg>

<svg xmlns="http://www.w3.org/2000/svg" width="12" height="12" fill="none" data-fui-icon="true" viewBox="0 0 12 12"><path fill="currentColor" d="M6 .25c2.356 0 4.277 1.897 4.277 4.25 0 1.225-.523 2.33-1.355 3.104-.134.125-.172.24-.172.306V9a2.75 2.75 0 1 1-5.5 0V7.91c0-.066-.037-.181-.172-.306A4.23 4.23 0 0 1 1.723 4.5C1.723 2.148 3.643.25 6 .25m0 1.5c-1.54 0-2.777 1.237-2.777 2.75 0 .79.335 1.502.876 2.005.348.324.65.811.65 1.405V9c0 .408.198.77.5.998V6.727l-.873-1.311A.75.75 0 0 1 5 4.25h2a.75.75 0 0 1 .624 1.166l-.874 1.31v3.272c.303-.228.5-.59.5-.998V7.91c0-.594.303-1.081.651-1.405.54-.503.876-1.216.876-2.005 0-1.513-1.238-2.75-2.777-2.75"/></svg>
